X: 4418
M: 2/4
L: 1/16
K: G
(Bc) |\
d2b2b3g | e2g2g3e | ddd2 ggg2 | fgab a2(Bc) |\
d2b2b3g | e2g2g3e | ddd2 fff2 | g2b2g2 H::\
(fg) |\
a2e2 efg2 | f2d2 def2 |
e2A2^c2A2 | d^cde fefg |\
a2e2 efg2 | f2d2 def2 | e2B2^c2A2 | d2d2"_D.C."d2 ::\
[K:=f][K:C]\
c2c2d3e | G6 G2 | A2A2f3A | G6 G2 |
c2c2d3e | G6 G2 | A2A2f3A | G6 G2 |\


